X:11679
T:Nel campu acen flores (MQ 021)
R:Pasudoble
C:Tradicional
S:Msica Tradicional Asturiana, (C) Tello & Tito. Asturies, 2001.
S:http://pagina.de/MusTradAst <telloytito@asturies.org>
N:Otra cancin popularsima.
N:La suelen cantar los coros y tambin la tienen muchas bandas en su repertorio.
A:Asturies
Z:Manolo Quirs 021
M:2/4
L:1/8
Q:1/4=100
K:C
E/F/
|GG AA|G2 G2-|G3 E/F/|GG AA|GG EE|CC DD|E2 E2-|E3 E/F/|
 GG AA|G2 G2-|G3 E/F/|GG AA|GG EE|CC DD|C2 C2-|C4|
G>F G>F|G/A/G/F/ EC|DD E2|E4|G>F G>F|G/A/G/F/ EC|DD C2|C4|
